packages/core/src/svgs/tokens/mono/BONDLY.svg

<svg width="24" height="24" viewBox="0 0 24 24" fill="none" xmlns="http://www.w3.org/2000/svg">
<path fill-rule="evenodd" clip-rule="evenodd" d="M5.95862 5.55881L3.17627 7.17645V16.6471L5.92333 18.2941L10.235 15.7471V20.9L12.0704 22L20.8233 16.6471V14.4353L16.7115 11.9059L20.8233 9.34703V6.97057L12.0704 2L10.235 3.07059V8.19999L5.95862 5.55881ZM12.588 14.4647L14.341 13.3705L18.4703 15.8235L12.588 19.2353V14.4647ZM12.588 9.38821V4.94705L18.3174 8.18234L14.2998 10.4765L12.588 9.3823V9.38821ZM5.5292 8.27646V15.4823L10.235 12.8058V10.9647L5.5292 8.27646Z" fill="white"/>
</svg>

<svg xmlns="http://www.w3.org/2000/svg" width="24" height="24" fill="none" viewBox="0 0 24 24">
    <path fill="#fff" fill-rule="evenodd" d="M5.959 5.559 3.176 7.176v9.471l2.747 1.647 4.312-2.547V20.9L12.07 22l8.753-5.353v-2.212l-4.111-2.53 4.111-2.558V6.971L12.07 2l-1.835 1.07V8.2zm6.629 8.906 1.753-1.094 4.13 2.452-5.883 3.412zm0-5.077v-4.44l5.73 3.234-4.018 2.294-1.712-1.094zM5.529 8.276v7.206l4.706-2.676v-1.841z" clip-rule="evenodd"/>
</svg>
